src/assets/images/gitcoin-logo.svg

<svg fill="none" height="160" viewBox="0 0 224 160" width="224" xmlns="http://www.w3.org/2000/svg"><rect fill="#fff" height="160" rx="16" width="224"/><g fill="#15003e"><path d="m63.6216 105.606h6.0512v.485c0 1.107-.1246 2.077-.3877 2.921-.2493.79-.6785 1.523-1.2878 2.202-1.357 1.537-3.0879 2.299-5.1926 2.299-2.0494 0-3.808-.734-5.2619-2.216-1.4678-1.482-2.1878-3.268-2.1878-5.359 0-2.132.7477-3.932 2.2293-5.414 1.4817-1.4816 3.2956-2.2293 5.4281-2.2293 1.1493 0 2.2155.2354 3.2125.7062.9554.4708 1.8832 1.2181 2.7971 2.2711l-1.5786 1.509c-1.2047-1.606-2.6725-2.395-4.3895-2.395-1.5508 0-2.8525.54-3.9048 1.606-1.0524 1.052-1.5786 2.368-1.5786 3.946 0 1.634.5816 2.977 1.7586 4.03 1.0939.983 2.2847 1.467 3.5587 1.467 1.0939 0 2.0632-.36 2.9355-1.093.8724-.734 1.357-1.621 1.454-2.645h-3.6557z"/><path d="m77.5101 98.5857h2.2156v14.6643h-2.2156z"/><path d="m92.3541 100.663v12.573h-2.2155v-12.573h-3.3648v-2.0772h8.9452v2.0772zm20.7009-1.2879v2.6169c-1.274-1.066-2.603-1.606-3.974-1.606-1.509 0-2.769.54-3.808 1.62-1.038 1.08-1.55 2.396-1.55 3.946 0 1.537.512 2.839 1.55 3.891 1.039 1.053 2.313 1.579 3.822 1.579.776 0 1.44-.125 1.98-.374.305-.125.623-.291.942-.512.332-.222.665-.471 1.025-.776v2.673c-1.261.72-2.59 1.08-3.988 1.08-2.091 0-3.878-.734-5.359-2.188-1.468-1.468-2.216-3.254-2.216-5.331 0-1.869.623-3.531 1.856-4.999 1.523-1.7861 3.489-2.6862 5.899-2.6862 1.315 0 2.589.3462 3.821 1.0663z"/></g><path d="m122.455 106.12c0 1.62.54 2.949 1.634 3.987 1.08 1.039 2.327 1.565 3.753 1.565 1.537 0 2.838-.526 3.891-1.592 1.052-1.08 1.592-2.382 1.592-3.933 0-1.564-.526-2.866-1.564-3.932-1.039-1.067-2.327-1.593-3.85-1.593s-2.811.526-3.863 1.593c-1.066 1.066-1.593 2.354-1.593 3.905zm-2.229-.028c0-2.063.762-3.836 2.271-5.317 1.509-1.482 3.309-2.2159 5.428-2.2159 2.091 0 3.877.7477 5.373 2.2429 1.495 1.496 2.243 3.282 2.243 5.387s-.748 3.891-2.257 5.359c-1.51 1.481-3.337 2.215-5.484 2.215-1.897 0-3.586-.651-5.095-1.966-1.648-1.454-2.479-3.351-2.479-5.705z" fill="#0fce7c"/><path d="m143.228 98.5857h2.216v14.6643h-2.216z" fill="#15003e"/><path d="m154.015 113.25v-15.6614l10.69 11.1884v-10.1914h2.215v15.5504l-10.69-11.147v10.261z" fill="#15003e"/><path d="m116.78 63.3447 2.382 4.6942-1.814 7.6851-4.306-3.5172.761-5.6357z" fill="#fff"/><path d="m110.424 61.7661c-.498 0-.9-.4016-.9-.9001v-7.0758c0-.4985.402-.9001.9-.9001.499 0 .901.4016.901.9001v7.0758c-.014.4985-.416.9001-.901.9001z" fill="#15003e"/><path d="m111.865 61.7662h-2.784c-.498-.0139-.886-.4154-.886-.9139.014-.4847.402-.8724.886-.8862h2.784c.498.0138.886.4154.886.9139-.014.4985-.416.8862-.886.8862z" fill="#15003e"/><path d="m116.78 63.3449 2.95-2.7833c-2.257-2.257-5.387-3.6556-8.821-3.6556-6.896 0-12.4898 5.5942-12.4898 12.49s5.5938 12.49 12.4898 12.49c2.576 0 4.833.9416 6.813-.3877l2.465.3462-.07-4.0157-7.075-5.608 1.523-7.1589z" fill="#fff"/><path d="m110.909 83.1043c-7.56 0-13.7084-6.148-13.7084-13.7085s6.1484-13.7085 13.7084-13.7085c3.656 0 7.104 1.4262 9.693 4.0156l.886.8862-3.877 3.6418-1.675-1.7863 1.98-1.8694c-1.98-1.5924-4.431-2.4509-7.021-2.4509-6.203 0-11.2574 5.0542-11.2574 11.2576 0 6.2035 5.0544 11.2577 11.2574 11.2577" fill="#15003e"/><path d="m117.791 76.0563-1.758-1.7032c1.301-1.3432 2.007-3.1018 2.007-4.9573 0-1.9385-.761-3.7663-2.16-5.1095l-.914-.9001.983-.9277.845.8862.803-.8308c1.87 1.8139 2.908 4.2649 2.908 6.8681-.014 2.5063-.969 4.8741-2.714 6.6743z" fill="#0fce7c"/><path d="m108.098 69.3961c0-1.5509 1.26-2.8248 2.825-2.8248 1.551 0 2.825 1.2601 2.825 2.8248 0 1.5508-1.26 2.8248-2.825 2.8248-1.565-.0139-2.825-1.274-2.825-2.8248z" fill="#eff4ee"/><path d="m110.909 67.8035c-.872 0-1.592.7201-1.592 1.5924 0 .8724.72 1.5924 1.592 1.5924s1.592-.72 1.592-1.5924c0-.8862-.706-1.5924-1.592-1.5924zm0 5.6357c-2.229 0-4.043-1.8139-4.043-4.0433s1.814-4.0433 4.043-4.0433 4.043 1.8139 4.043 4.0433-1.814 4.0433-4.043 4.0433zm8.834-12.8777-7.131 6.5912z" fill="#15003e"/><path d="m118.913 59.6614 1.661 1.8001-7.131 6.5912-1.662-1.8001z" fill="#15003e"/><path d="m112.238 71.8745 5.124 3.8495 2.769 2.077v5.2896l-5.552-.2631" fill="#fff"/><path d="m121.35 83.1042h-10.662v-2.4509h8.211v-2.2293l-7.394-5.5665 1.468-1.9525 8.377 6.3004z" fill="#15003e"/><path d="m122.222 54.4689.983-.9831.984.9831-.984.9832zm-4.223-4.7357.471-.4707.471.4707-.471.4708z" fill="#25e899"/><path d="m123.814 45.6068c0-.3877-.318-.7062-.706-.7062-.387 0-.706.3185-.706.7062s.319.7062.706.7062c.388 0 .706-.3046.706-.7062z" fill="#25e899"/><path d="m106.16 64.2448c-.499 0-.9-.4016-.9-.9001v-9.5544c.013-.4985.415-.8862.914-.8862.484.0138.872.4015.886.8862v9.5544c0 .4985-.402.9001-.9.9001z" fill="#15003e"/></svg>

<svg width="224" height="160" viewBox="0 0 224 160" fill="none" xmlns="http://www.w3.org/2000/svg">
<rect width="224" height="160" rx="16" fill="white"/>
<path d="M63.6216 105.606H69.6728V106.091C69.6728 107.198 69.5482 108.168 69.2851 109.012C69.0358 109.802 68.6066 110.535 67.9973 111.214C66.6403 112.751 64.9094 113.513 62.8047 113.513C60.7553 113.513 58.9967 112.779 57.5428 111.297C56.075 109.815 55.355 108.029 55.355 105.938C55.355 103.806 56.1027 102.006 57.5843 100.524C59.066 99.0424 60.8799 98.2947 63.0124 98.2947C64.1617 98.2947 65.2279 98.5301 66.2249 99.0009C67.1803 99.4717 68.1081 100.219 69.022 101.272L67.4434 102.781C66.2387 101.175 64.7709 100.386 63.0539 100.386C61.5031 100.386 60.2014 100.926 59.1491 101.992C58.0967 103.044 57.5705 104.36 57.5705 105.938C57.5705 107.572 58.1521 108.915 59.3291 109.968C60.423 110.951 61.6138 111.435 62.8878 111.435C63.9817 111.435 64.951 111.075 65.8233 110.342C66.6957 109.608 67.1803 108.721 67.2773 107.697H63.6216V105.606Z" fill="#15003E"/>
<path d="M77.5101 98.5857H79.7257V113.25H77.5101V98.5857Z" fill="#15003E"/>
<path d="M92.3541 100.663V113.236H90.1386V100.663H86.7738V98.5858H95.719V100.663H92.3541ZM113.055 99.3751V101.992C111.781 100.926 110.452 100.386 109.081 100.386C107.572 100.386 106.312 100.926 105.273 102.006C104.235 103.086 103.723 104.402 103.723 105.952C103.723 107.489 104.235 108.791 105.273 109.843C106.312 110.896 107.586 111.422 109.095 111.422C109.871 111.422 110.535 111.297 111.075 111.048C111.38 110.923 111.698 110.757 112.017 110.536C112.349 110.314 112.682 110.065 113.042 109.76V112.433C111.781 113.153 110.452 113.513 109.054 113.513C106.963 113.513 105.176 112.779 103.695 111.325C102.227 109.857 101.479 108.071 101.479 105.994C101.479 104.125 102.102 102.463 103.335 100.995C104.858 99.2089 106.824 98.3088 109.234 98.3088C110.549 98.3088 111.823 98.655 113.055 99.3751Z" fill="#15003E"/>
<path d="M122.455 106.12C122.455 107.74 122.995 109.069 124.089 110.107C125.169 111.146 126.416 111.672 127.842 111.672C129.379 111.672 130.68 111.146 131.733 110.08C132.785 109 133.325 107.698 133.325 106.147C133.325 104.583 132.799 103.281 131.761 102.215C130.722 101.148 129.434 100.622 127.911 100.622C126.388 100.622 125.1 101.148 124.048 102.215C122.982 103.281 122.455 104.569 122.455 106.12ZM120.226 106.092C120.226 104.029 120.988 102.256 122.497 100.775C124.006 99.293 125.806 98.5591 127.925 98.5591C130.016 98.5591 131.802 99.3068 133.298 100.802C134.793 102.298 135.541 104.084 135.541 106.189C135.541 108.294 134.793 110.08 133.284 111.548C131.774 113.029 129.947 113.763 127.8 113.763C125.903 113.763 124.214 113.112 122.705 111.797C121.057 110.343 120.226 108.446 120.226 106.092Z" fill="#0FCE7C"/>
<path d="M143.228 98.5857H145.444V113.25H143.228V98.5857Z" fill="#15003E"/>
<path d="M154.015 113.25V97.5886L164.705 108.777V98.5856H166.92V114.136L156.23 102.989V113.25H154.015Z" fill="#15003E"/>
<path d="M116.78 63.3447L119.162 68.0389L117.348 75.724L113.042 72.2068L113.803 66.5711L116.78 63.3447Z" fill="white"/>
<path d="M110.424 61.7661C109.926 61.7661 109.524 61.3645 109.524 60.866V53.7902C109.524 53.2917 109.926 52.8901 110.424 52.8901C110.923 52.8901 111.325 53.2917 111.325 53.7902V60.866C111.311 61.3645 110.909 61.7661 110.424 61.7661Z" fill="#15003E"/>
<path d="M111.865 61.7662H109.081C108.583 61.7523 108.195 61.3508 108.195 60.8523C108.209 60.3676 108.597 59.9799 109.081 59.9661H111.865C112.363 59.9799 112.751 60.3815 112.751 60.88C112.737 61.3785 112.335 61.7662 111.865 61.7662Z" fill="#15003E"/>
<path d="M116.78 63.3449L119.73 60.5616C117.473 58.3046 114.343 56.906 110.909 56.906C104.013 56.906 98.4192 62.5002 98.4192 69.396C98.4192 76.2918 104.013 81.886 110.909 81.886C113.485 81.886 115.742 82.8276 117.722 81.4983L120.187 81.8445L120.117 77.8288L113.042 72.2208L114.565 65.0619L116.78 63.3449Z" fill="white"/>
<path d="M110.909 83.1043C103.349 83.1043 97.2006 76.9563 97.2006 69.3958C97.2006 61.8353 103.349 55.6873 110.909 55.6873C114.565 55.6873 118.013 57.1135 120.602 59.7029L121.488 60.5891L117.611 64.2309L115.936 62.4446L117.916 60.5752C115.936 58.9828 113.485 58.1243 110.895 58.1243C104.692 58.1243 99.6376 63.1785 99.6376 69.3819C99.6376 75.5854 104.692 80.6396 110.895 80.6396" fill="#15003E"/>
<path d="M117.791 76.0563L116.033 74.3531C117.334 73.0099 118.04 71.2513 118.04 69.3958C118.04 67.4573 117.279 65.6295 115.88 64.2863L114.966 63.3862L115.949 62.4585L116.794 63.3447L117.597 62.5139C119.467 64.3278 120.505 66.7788 120.505 69.382C120.491 71.8883 119.536 74.2561 117.791 76.0563Z" fill="#0FCE7C"/>
<path d="M108.098 69.3961C108.098 67.8452 109.358 66.5713 110.923 66.5713C112.474 66.5713 113.748 67.8314 113.748 69.3961C113.748 70.9469 112.488 72.2209 110.923 72.2209C109.358 72.207 108.098 70.9469 108.098 69.3961Z" fill="#EFF4EE"/>
<path d="M110.909 67.8035C110.037 67.8035 109.317 68.5236 109.317 69.3959C109.317 70.2683 110.037 70.9883 110.909 70.9883C111.781 70.9883 112.501 70.2683 112.501 69.3959C112.501 68.5097 111.795 67.8035 110.909 67.8035ZM110.909 73.4392C108.68 73.4392 106.866 71.6253 106.866 69.3959C106.866 67.1665 108.68 65.3526 110.909 65.3526C113.138 65.3526 114.952 67.1665 114.952 69.3959C114.952 71.6253 113.138 73.4392 110.909 73.4392ZM119.743 60.5615L112.612 67.1527L119.743 60.5615Z" fill="#15003E"/>
<path d="M118.913 59.6614L120.574 61.4615L113.443 68.0527L111.781 66.2526L118.913 59.6614Z" fill="#15003E"/>
<path d="M112.238 71.8745L117.362 75.724L120.131 77.801V83.0906L114.579 82.8275" fill="white"/>
<path d="M121.35 83.1042H110.688V80.6533H118.899V78.424L111.505 72.8575L112.973 70.905L121.35 77.2054V83.1042Z" fill="#15003E"/>
<path d="M122.222 54.4689L123.205 53.4858L124.189 54.4689L123.205 55.4521L122.222 54.4689ZM117.999 49.7332L118.47 49.2625L118.941 49.7332L118.47 50.204L117.999 49.7332Z" fill="#25E899"/>
<path d="M123.814 45.6068C123.814 45.2191 123.496 44.9006 123.108 44.9006C122.721 44.9006 122.402 45.2191 122.402 45.6068C122.402 45.9945 122.721 46.313 123.108 46.313C123.496 46.313 123.814 46.0084 123.814 45.6068Z" fill="#25E899"/>
<path d="M106.16 64.2448C105.661 64.2448 105.26 63.8432 105.26 63.3447V53.7903C105.273 53.2918 105.675 52.9041 106.174 52.9041C106.658 52.9179 107.046 53.3056 107.06 53.7903V63.3447C107.06 63.8432 106.658 64.2448 106.16 64.2448Z" fill="#15003E"/>
</svg>
